X:1
T:[ID 6-66]
T:[ID 6-66]
T:Bezeichnung standardisiert: Menuett Menuet 11.
T:Urheber unbekannt Datum in der hier transkribierten schriftlichen Quelle: 1776 - 1791
C:Urheber unbekannt
C:Datum in der hier transkribierten schriftlichen Quelle: 1776 - 1791
L:1/8
M:3/4
K:A
V:1 treble 
V:1
 A2 c2 e2 | ag a4 | edcBAG | A6 | AGABcB | AGABcB | d2 fedc | B6 :: F2 e4 | defd B2 | %10
!p! (dc)(cB) B2 |!f! E2 d4 | cdec A2 |!p! (cB)(BA) A2 |!f! A2 c2 e2 | ag a4 | EdcBAG | A6 :| %18

